svg/sensor_alt.svg

<svg width="24" height="24" viewBox="0 0 24 24"  xmlns="http://www.w3.org/2000/svg">
<path d="M6.00015 7.04999L4.53015 8.46999C5.46445 9.40722 5.98909 10.6766 5.98909 12C5.98909 13.3234 5.46445 14.5928 4.53015 15.53L6.00015 17C6.65024 16.35 7.16592 15.5783 7.51774 14.7289C7.86957 13.8796 8.05066 12.9693 8.05066 12.05C8.05066 11.1307 7.86957 10.2204 7.51774 9.37104C7.16592 8.52171 6.65024 7.75001 6.00015 7.09999V7.04999Z" />
<path d="M12.0002 14C13.1047 14 14.0002 13.1046 14.0002 12C14.0002 10.8954 13.1047 9.99998 12.0002 9.99998C10.8956 9.99998 10.0002 10.8954 10.0002 12C10.0002 13.1046 10.8956 14 12.0002 14Z" />
<path d="M1.41016 10.59L2.83016 9.16998C3.20149 9.54173 3.49595 9.983 3.6967 10.4686C3.89745 10.9542 4.00057 11.4745 4.00016 12C4.00057 12.5254 3.89745 13.0458 3.6967 13.5314C3.49595 14.017 3.20149 14.4582 2.83016 14.83L1.41016 13.41C1.78266 13.0353 1.99174 12.5284 1.99174 12C1.99174 11.4716 1.78266 10.9647 1.41016 10.59Z" />
<path d="M18.0002 12C18.0031 10.675 18.5318 9.40541 19.4702 8.46999L18.0502 7.04999C17.4001 7.70001 16.8844 8.47171 16.5326 9.32104C16.1807 10.1704 15.9997 11.0807 15.9997 12C15.9997 12.9193 16.1807 13.8296 16.5326 14.6789C16.8844 15.5283 17.4001 16.3 18.0502 16.95L19.4702 15.53C18.5318 14.5946 18.0031 13.3249 18.0002 12Z" />
<path d="M22.5902 10.59C22.2146 10.9633 22.0024 11.4704 22.0002 12C22.0024 12.5296 22.2146 13.0366 22.5902 13.41L21.1702 14.83C20.7983 14.4585 20.5032 14.0173 20.3019 13.5317C20.1006 13.0462 19.997 12.5256 19.997 12C19.997 11.4743 20.1006 10.9538 20.3019 10.4682C20.5032 9.98263 20.7983 9.54148 21.1702 9.16998L22.5902 10.59Z" />
</svg>

<svg width="24" height="24" viewBox="0 0 24 24" xmlns="http://www.w3.org/2000/svg"><path d="M6 7.05L4.53 8.47a5 5 0 0 1 0 7.06L6 17a6.999 6.999 0 0 0 0-9.9v-.05zM12 14a2 2 0 1 0 0-4 2 2 0 0 0 0 4zM1.41 10.59l1.42-1.42a4 4 0 0 1 .867 4.361 4 4 0 0 1-.867 1.299l-1.42-1.42a2 2 0 0 0 0-2.82zM18 12a5 5 0 0 1 1.47-3.53l-1.42-1.42a7 7 0 0 0 0 9.9l1.42-1.42A5 5 0 0 1 18 12zM22.59 10.59A2 2 0 0 0 22 12a2 2 0 0 0 .59 1.41l-1.42 1.42a4 4 0 0 1 0-5.66l1.42 1.42z"/></svg>
